icons/svg/text-bold.svg

<svg width="24" height="24" viewBox="0 0 24 24" fill="none" xmlns="http://www.w3.org/2000/svg">
<path d="M7.5 11.7759H12.0513C13.7626 11.7759 15.15 10.371 15.15 8.63793C15.15 6.9049 13.7626 5.5 12.0513 5.5H8.5C7.94772 5.5 7.5 5.94772 7.5 6.5V11.7759ZM7.5 11.7759H13.125C14.989 11.7759 16.5 13.2811 16.5 15.1379C16.5 16.9948 14.989 18.5 13.125 18.5H8.5C7.94772 18.5 7.5 18.0523 7.5 17.5V11.7759Z" stroke="currentColor" stroke-width="3" stroke-linecap="round" stroke-linejoin="round"/>
</svg>

<svg xmlns="http://www.w3.org/2000/svg" width="24" height="24" fill="none" viewBox="0 0 24 24"><path stroke="currentColor" stroke-linecap="round" stroke-linejoin="round" stroke-width="3" d="M7.5 11.776h4.551c1.712 0 3.099-1.405 3.099-3.138S13.763 5.5 12.051 5.5H8.5a1 1 0 0 0-1 1zm0 0h5.625a3.37 3.37 0 0 1 3.375 3.362 3.37 3.37 0 0 1-3.375 3.362H8.5a1 1 0 0 1-1-1z"/></svg>
